src/xmb/retrosystem/VTech - V.Smile-content.svg

<svg xmlns="http://www.w3.org/2000/svg" xml:space="preserve" width="256" height="256" viewBox="0 0 341.333 341.333"><path d="M0 0c-28 0-16-8-36-8s-16 8-36 8-16-8-36-8-8 8-36 8c-23.081 0-35.29-21.745-38.867-29.384A12 12 0 0 1-184-34.476V-192H40v157.524c0 1.763-.386 3.496-1.133 5.092C35.29-21.745 23.081 0 0 0" style="fill:#4b5da7;fill-opacity:1;fill-rule:nonzero;stroke:none" transform="matrix(1.33333 0 0 -1.33333 266.667 21.333)"/><path d="M0 0h-200a4 4 0 0 1-4-4v-92c0-11.046 8.954-20 20-20h168c11.046 0 20 8.954 20 20v92a4 4 0 0 1-4 4" style="fill:#354f9f;fill-opacity:1;fill-rule:nonzero;stroke:none" transform="matrix(1.33333 0 0 -1.33333 304 64)"/><g style="fill:#e6e6e6"><path d="M0 0v-92c0-8.822-7.178-16-16-16h-168c-8.822 0-16 7.178-16 16V0z" style="fill:#e6e6e6;fill-opacity:1;fill-rule:nonzero;stroke:none" transform="matrix(1.33333 0 0 -1.33333 304 69.333)"/></g><path d="M0 0h-192v60a8 8 0 0 0 8 8H-8a8 8 0 0 0 8-8z" style="fill:#354f9f;fill-opacity:1;fill-rule:nonzero;stroke:none" transform="matrix(1.33333 0 0 -1.33333 298.667 320)"/><path d="M0 0h-184v28a4 4 0 0 0 4 4H-4a4 4 0 0 0 4-4z" style="fill:#4b5da7;fill-opacity:1;fill-rule:nonzero;stroke:none" transform="matrix(1.33333 0 0 -1.33333 293.333 277.333)"/><path d="M0 0v4h-4V0h-4l6-4 6 4z" style="fill:#354f9f;fill-opacity:1;fill-rule:nonzero;stroke:none" transform="matrix(1.33333 0 0 -1.33333 69.333 266.667)"/><g style="fill:purple"><g style="fill:purple"><path d="m0 0 14.062 12V6.757L20.009 12V3.946s4.088 7.676 4.336 7.676 9.726-.054 9.726-.054l-1.549-2.811h-5.637l-.805-1.514h3.159l-1.858-3.135h-2.416l-.682-1.243h11.398l.744 1.189h-5.699l4.398 7.622h9.911l-1.734-2.973h-5.637l-.929-1.46h5.823L38.469 0H15.735l.123 3.892L11.336 0l-.186 3.946L6.628 0Z" style="fill:purple;fill-opacity:1;fill-rule:nonzero;stroke:none" transform="matrix(2.66664 0 0 -2.6666 96 157.333)"/></g><g style="fill:purple"><path d="m0 0-.121.001-1.094-2.206Z" style="fill:purple;fill-opacity:1;fill-rule:nonzero;stroke:none" transform="matrix(2.66664 0 0 -2.6666 216.093 126.486)"/></g><g style="fill:purple"><path d="m0 0 1.735 2.973h-9.912l-4.398-7.622h5.699l-.743-1.189h-5.493l-1.684-2.865h9.964l4.089 7.244h-5.823L-5.637 0Z" style="fill:purple;fill-opacity:1;fill-rule:nonzero;stroke:none" transform="matrix(2.66664 0 0 -2.6666 240.707 134.126)"/></g></g><path d="M56 16c-23.081 0-35.29 21.746-38.867 29.385A12 12 0 0 0 16 50.477V208h16v32h192v-32h16V50.477c0-1.763-.386-3.496-1.133-5.092C235.29 37.745 223.081 16 200 16c-28 0-16 8-36 8s-16-8-36-8-16 8-36 8-8-8-36-8z" style="fill:none;fill-opacity:1;fill-rule:nonzero;stroke:#1a1a1a;stroke-width:1.99999994;stroke-miterlimit:4;stroke-dasharray:none" transform="scale(1.33333)"/></svg>

<?xml version="1.0" encoding="UTF-8" standalone="no"?>
<svg
   xmlns:dc="http://purl.org/dc/elements/1.1/"
   xmlns:cc="http://creativecommons.org/ns#"
   xmlns:rdf="http://www.w3.org/1999/02/22-rdf-syntax-ns#"
   xmlns:svg="http://www.w3.org/2000/svg"
   xmlns="http://www.w3.org/2000/svg"
   xmlns:sodipodi="http://sodipodi.sourceforge.net/DTD/sodipodi-0.dtd"
   xmlns:inkscape="http://www.inkscape.org/namespaces/inkscape"
   viewBox="0 0 341.33334 341.33334"
   height="256"
   width="256"
   xml:space="preserve"
   id="svg2"
   version="1.1"
   sodipodi:docname="VTech - V.Smile-content.svg"
   inkscape:version="0.92.3 (2405546, 2018-03-11)"><sodipodi:namedview
     pagecolor="#ffffff"
     bordercolor="#666666"
     borderopacity="1"
     objecttolerance="10"
     gridtolerance="10"
     guidetolerance="10"
     inkscape:pageopacity="0"
     inkscape:pageshadow="2"
     inkscape:window-width="1920"
     inkscape:window-height="1001"
     id="namedview30"
     showgrid="false"
     inkscape:pagecheckerboard="true"
     inkscape:zoom="1.3828124"
     inkscape:cx="-131.7031"
     inkscape:cy="0.05578222"
     inkscape:window-x="-9"
     inkscape:window-y="-9"
     inkscape:window-maximized="1"
     inkscape:current-layer="svg2" /><metadata
     id="metadata8"><rdf:RDF><cc:Work
         rdf:about=""><dc:format>image/svg+xml</dc:format><dc:type
           rdf:resource="http://purl.org/dc/dcmitype/StillImage" /><dc:title /></cc:Work></rdf:RDF></metadata><defs
     id="defs6"><clipPath
       id="clipPath18"
       clipPathUnits="userSpaceOnUse"><path
         id="path16"
         d="M 0,256 H 256 V 0 H 0 Z" /></clipPath><clipPath
       id="clipPath26"
       clipPathUnits="userSpaceOnUse"><path
         id="path24"
         d="M 8,248 H 248 V 8 H 8 Z" /></clipPath></defs><g
     id="g36"
     transform="matrix(1.3333333,0,0,-1.3333333,266.66666,21.333338)"><path
       inkscape:connector-curvature="0"
       d="m 0,0 c -28,0 -16,-8 -36,-8 -20,0 -16,8 -36,8 -20,0 -16,-8 -36,-8 -20,0 -8,8 -36,8 -23.081,0 -35.29,-21.745 -38.867,-29.384 -0.748,-1.596 -1.133,-3.329 -1.133,-5.092 V -192 H 40 v 157.524 c 0,1.763 -0.386,3.496 -1.133,5.092 C 35.29,-21.745 23.081,0 0,0"
       style="fill:#4b5da7;fill-opacity:1;fill-rule:nonzero;stroke:none"
       id="path38" /></g><g
     id="g40"
     transform="matrix(1.3333333,0,0,-1.3333333,303.99999,64.000004)"><path
       inkscape:connector-curvature="0"
       d="m 0,0 h -200 c -2.209,0 -4,-1.791 -4,-4 v -92 c 0,-11.046 8.954,-20 20,-20 h 168 c 11.046,0 20,8.954 20,20 V -4 C 4,-1.791 2.209,0 0,0"
       style="fill:#354f9f;fill-opacity:1;fill-rule:nonzero;stroke:none"
       id="path42" /></g><g
     id="g44"
     transform="matrix(1.3333333,0,0,-1.3333333,303.99999,69.333337)"
     style="fill:#e6e6e6"><path
       inkscape:connector-curvature="0"
       d="m 0,0 v -92 c 0,-8.822 -7.178,-16 -16,-16 h -168 c -8.822,0 -16,7.178 -16,16 V 0 H 0"
       style="fill:#e6e6e6;fill-opacity:1;fill-rule:nonzero;stroke:none"
       id="path46" /></g><g
     id="g48"
     transform="matrix(1.3333333,0,0,-1.3333333,298.66666,320)"><path
       inkscape:connector-curvature="0"
       d="m 0,0 h -192 v 60 c 0,4.418 3.582,8 8,8 H -8 c 4.418,0 8,-3.582 8,-8 z"
       style="fill:#354f9f;fill-opacity:1;fill-rule:nonzero;stroke:none"
       id="path50" /></g><g
     id="g52"
     transform="matrix(1.3333333,0,0,-1.3333333,293.33333,277.33333)"><path
       inkscape:connector-curvature="0"
       d="m 0,0 h -184 v 28 c 0,2.209 1.791,4 4,4 H -4 c 2.209,0 4,-1.791 4,-4 z"
       style="fill:#4b5da7;fill-opacity:1;fill-rule:nonzero;stroke:none"
       id="path54" /></g><g
     id="g56"
     transform="matrix(1.3333333,0,0,-1.3333333,69.333332,266.66667)"><path
       inkscape:connector-curvature="0"
       d="M 0,0 V 4 H -4 V 0 h -4 l 6,-4 6,4 z"
       style="fill:#354f9f;fill-opacity:1;fill-rule:nonzero;stroke:none"
       id="path58" /></g><g
     id="g872"
     transform="matrix(1.9999825,0,0,1.9999501,-226.58788,-336.90709)"
     style="fill:#800080"><g
       transform="matrix(1.3333333,0,0,-1.3333333,161.29535,247.12598)"
       id="g102"
       style="fill:#800080"><path
         id="path104"
         style="fill:#800080;fill-opacity:1;fill-rule:nonzero;stroke:none"
         d="M 0,0 14.062,12 V 6.757 L 20.009,12 V 3.946 c 0,0 4.088,7.676 4.336,7.676 0.248,0 9.726,-0.054 9.726,-0.054 L 32.522,8.757 H 26.885 L 26.08,7.243 h 3.159 L 27.381,4.108 H 24.965 L 24.283,2.865 h 11.398 l 0.744,1.189 h -5.699 l 4.398,7.622 h 9.911 L 43.301,8.703 h -5.637 l -0.929,-1.46 h 5.823 L 38.469,0 H 15.735 L 15.858,3.892 11.336,0 11.15,3.946 6.628,0 Z"
         inkscape:connector-curvature="0" /></g><g
       transform="matrix(1.3333333,0,0,-1.3333333,221.34254,231.7025)"
       id="g106"
       style="fill:#800080"><path
         id="path108"
         style="fill:#800080;fill-opacity:1;fill-rule:nonzero;stroke:none"
         d="M 0,0 C 0,0 -0.044,0 -0.121,0.001 L -1.215,-2.205 Z"
         inkscape:connector-curvature="0" /></g><g
       transform="matrix(1.3333333,0,0,-1.3333333,233.64934,235.52238)"
       id="g110"
       style="fill:#800080"><path
         id="path112"
         style="fill:#800080;fill-opacity:1;fill-rule:nonzero;stroke:none"
         d="m 0,0 1.735,2.973 h -9.912 l -4.398,-7.622 h 5.699 l -0.743,-1.189 h -5.493 l -1.684,-2.865 h 9.964 l 4.089,7.244 H -6.566 L -5.637,0 Z"
         inkscape:connector-curvature="0" /></g></g><path
     style="fill:none;fill-opacity:1;fill-rule:nonzero;stroke:#1a1a1a;stroke-width:1.99999994;stroke-miterlimit:4;stroke-dasharray:none"
     d="M 56 16 C 32.919001 16 20.709813 37.745766 17.132812 45.384766 C 16.384813 46.980766 16 48.713562 16 50.476562 L 16 208 L 32 208 L 32 240 L 224 240 L 224 208 L 240 208 L 240 50.476562 C 240 48.713562 239.61419 46.980766 238.86719 45.384766 C 235.29018 37.745766 223.081 16 200 16 C 172 16 184 24 164 24 C 144.00001 24 148 16 128 16 C 108.00001 16 112 24 92 24 C 72.000004 24 84.000001 16 56 16 z "
     transform="scale(1.3333334)"
     id="path837" /></svg>
